X: 840
T: Gidin Bulutlar Gidin
C: Hisarlı Ahmet
O: Turkey
F: http://compmusic.upf.edu/node/140
N: tahir--turku--nimsofyan--gidin_bulutlar--kutahya
N: makam= tahir
N: form= turku
N: usul= nimsofyan = 2/4
M: 2/4
L: 1/16
K: C _2/4B ^3/4f  
Q: 1/4=90
%%MIDI tuningsystem comma53
d3c d2e2  | dedc B4  | c3B c2d2  | cdcB A4  | \
w:  ARANAĞME  |   |   |   | 
cB2A B2c2  | 
w:   | 
B3A G2B2  | A6e2  | dedc d4  | d3c d2e2  | \
w:   |   |   |  ARANAĞME  | 
dedc B4  | c3B c2d2  | 
w:   |   | 
cdcB A4  | cB2A B2c2  | B3A G2B2  | A3A A2Bc  | \
w:   |   |   |   | 
defg a4  | 
w:   | 
fga2 a4  | a4 gfe2  | a4 gfge  | e4 {g}d2c2  | \
w:  Gi din   |  bu lut  |  lar   |  gi *  din    | 
d4 g2g2  | d4 (3c2B2c2  | 
w:  Ah  yâ ri  |  me  se  | 
A4 c3/2B/c2  | B3A G2G2  | z2Bc d2_3/4ed  | \
w:  lâm_  |  e *  *  din    |  Gel   | 
f_3/4e2d _ed3  | d8  | BABc d4  | 
w:  gel  *  *  gel_ a  |  man    |  SAZ  | 
g2a6  | a4 gfe2  | a4 gfge  | ed2g d2c2  | \
w:  Yâ rim_  |  uy ku  |  da   |  i *  *  se    | 
d4 g4  | d4 c{d}B2c  | 
w:  Uy ku  |  sun  ha  | 
A4 c3/2B/c2  | B3G G4  | z2Bc d2d2  | d4 d4  | \
w:  ram_  |  e *  din    |  Ay *  *  le   |  bir  da  | 
c2{d}B2 {c}ABG2  | c3/2B/c2 A4  | 
w:  nem_  |  *  *  *  ay  | 
A8  | A8  | g2a6  | a4 gfe2  | a4 gfge  | ed2g d2c2  | \
w:  le    |   |  Yâ rim_  |  uy ku  |  da   |  i *  *  se    | 
d4 g4  | d4 c{d}B2c  | 
w:  Uy ku  |  sun  ha  | 
A4 c3/2B/c2  | B3G G4  | z2Bc d2d2  | d4 d4  | \
w:  ram_  |  e *  din    |  Ay *  *  le   |  bir  da  | 
c2{d}B2 {c}ABG2  | c3/2B/c2 A4  | 
w:  nem_  |  *  *  *  ay  | 
A8  | A8  | d3c d2e2  | dedc B4  | c3B c2d2  | \
w:  le    |   |  SAZ  |   |   | 
cdcB A4  | cB2A B2c2  | 
w:   |   | 
B3A G2B2  | A6e2  | dedc d4  | d3c d2e2  | \
w:   |   |   |  SAZ  | 
dedc B4  | c3B c2d2  | 
w:   |   | 
cdcB A4  | cB2A B2c2  | B3A G2B2  | A3A A2Bc  | \
w:   |   |   |   | 
defg a4  | 
w:   | 
g2a6  | a4 gfe2  | a2a2 gfg2  | e4 {g}d2c2  | \
w:  Gi der_  |  i sen   |  u ğur *  *  lar_  |  ol *  sun    | 
d2d2 g4  | d4 (3c2B2c2  | 
w:  Dağ lar   |  daş lar   | 
A4 c3/2B/c2  | B3A G2G2  | z2Bc d2_3/4ed  | \
w:  yo lun_  |  ol *  *  sun    |  Gel   | 
f_3/4e2d ed3  | d8  | BABc d4  | 
w:  gel  *  *  gel_ a  |  man    |  SAZ  | 
g2a6  | a4 gfe2  | a4 gfg2  | ed2g d2c2  | \
w:  Ben den   |  baş ka   |  yâr  *  *  se  |  ver *  *  sen    | 
d2d2 g2g2  | d4 c{d}B2c  | 
w:  İ lâ *  hi   |  gö zün   | 
A4 c3/2B/c2  | B3G G4  | z2Bc d2d2  | d4 d4  | \
w:  kör_  |  ol *  sun    |  Ay *  *  le   |  bir  da  | 
c2{d}B2 {c}ABG2  | c3/2B/c2 A4  | 
w:  nem_  |  *  *  *  ay  | 
A8  | A8  | g2a6  | a4 gfe2  | a4 gfg2  | ed2g d2c2  | \
w:  le    |   |  Ben den   |  baş ka   |  yâr  *  *  se  |  ver *  *  sen    | 
d2d2 g2g2  | 
w:  İ lâ *  hi   | 
d4 c{d}B2c  | A4 c3/2B/c2  | B3G G4  | z2Bc d2d2  | \
w:  gö zün   |  kör_  |  ol *  sun    |  Ay *  *  le   | 
d4 d4  | c2{d}B2 {c}ABG2  | 
w:  bir  da  |  nem_  | 
c3/2B/c2 A4  | A8  | A8  | d3c d2e2  | dedc B4  | \
w:  *  *  *  ay  |  le    |   |  SAZ  |   | 
c3B c2d2  | cdcB A4  | 
w:   |   | 
cB2A B2c2  | B3A G2B2  | A6e2  | dedc d4  | \
w:   |   |   |   | 
d3c d2e2  | dedc B4  | 
w:  SAZ  |   | 
c3B c2d2  | cdcB A4  | cB2A B2c2  | B3A G2B2  | \
w:   |   |   |   | 
A3A A2Bc  | 
w:   | 
defg a4  | g2a6  | a4 gfe2  | a2a2 gfg2  | \
w:   |  Gi der_  |  i sen   |  u ğur *  *  lar_  | 
e4 {g}d2c2  | d2d2 g4  | 
w:  ol *  sun    |  Dağ lar   | 
d4 (3c2B2c2  | A4 c3/2B/c2  | B3A G2G2  | \
w:  daş lar   |  yo lun_  |  ol *  *  sun    | 
z2Bc d2_3/4ed  | f_3/4e2d ed3  | 
w:  Gel   |  gel  *  *  gel_ a  | 
d8  | BABc d4  | g2a6  | a4 gfe2  | a4 gfg2  | \
w:  man    |  SAZ  |  Ben den   |  baş ka   |  yâr  *  *  se  | 
ed2g d2c2  | 
w:  ver *  *  sen    | 
d2d2 g2g2  | d4 c{d}B2c  | A4 c3/2B/c2  | \
w:  İ lâ *  hi   |  gö zün   |  kör_  | 
B3G G4  | z2Bc d2d2  | d4 d4  | 
w:  ol *  sun    |  Ay *  *  le   |  bir  da  | 
c2{d}B2 {c}ABG2  | c3/2B/c2 A4  | A8  | A8  | \
w:  nem_  |  *  *  *  ay  |  le    |   | 
g2a6  | a4 gfe2  | a4 gfg2  | 
w:  Ben den   |  baş ka   |  yâr  *  *  se  | 
ed2g d2c2  | d2d2 g2g2  | d4 c{d}B2c  | \
w:  ver *  *  sen    |  İ lâ *  hi   |  gö zün   | 
A4 c3/2B/c2  | B3G G4  | z2Bc d2d2  | 
w:  kör_  |  ol *  sun    |  Ay *  *  le   | 
d4 d4  | c2{d}B2 {c}ABG2  | c3/2B/c2 A4  | A8  | A8  | |


